public/assets/logos/monage.svg

<svg width="60" height="60" viewBox="0 0 60 60" fill="none" xmlns="http://www.w3.org/2000/svg">
    <path d="M12.483 0H47.517C54.4112 0 60 5.58885 60 12.483V47.517C60 54.4111 54.4111 60 47.517 60H12.483C5.58886 60 0 54.4111 0 47.517V12.483C0 5.58885 5.58885 0 12.483 0ZM36.3424 42.8259H44.2616V16.7274L36.3424 20.66V42.8259ZM26.0407 42.8259H33.9599V21.8845L30.1069 23.5749L26.0407 21.8441V42.8259ZM15.5905 42.8259H23.5097V20.66L15.5905 16.7274V42.8259Z"
          fill="white"/>
</svg>

<svg width="60" height="60" viewBox="0 0 60 60" fill="none" xmlns="http://www.w3.org/2000/svg"><path d="M12.483 0h35.034C54.411 0 60 5.589 60 12.483v35.034C60 54.411 54.411 60 47.517 60H12.483C5.589 60 0 54.411 0 47.517V12.483C0 5.589 5.589 0 12.483 0Zm23.86 42.826h7.919V16.727l-7.92 3.933v22.166Zm-10.302 0h7.919V21.884l-3.853 1.69-4.066-1.73v20.982Zm-10.45 0h7.919V20.66l-7.92-3.933v26.099Z" fill="#fff"/></svg>
